images/flaticons/computer.svg

<svg height="512" viewBox="0 0 24 24" width="512" xmlns="http://www.w3.org/2000/svg"><path d="m18.5 0h-13a5.506 5.506 0 0 0 -5.5 5.5v8a5.506 5.506 0 0 0 5.5 5.5h5v2h-2.5a1.5 1.5 0 0 0 0 3h8a1.5 1.5 0 0 0 0-3h-2.5v-2h5a5.506 5.506 0 0 0 5.5-5.5v-8a5.506 5.506 0 0 0 -5.5-5.5zm-13 3h13a2.5 2.5 0 0 1 2.5 2.5v7.5h-18v-7.5a2.5 2.5 0 0 1 2.5-2.5z"/></svg>

<?xml version="1.0" encoding="UTF-8"?>
<svg xmlns="http://www.w3.org/2000/svg" id="Bold" viewBox="0 0 24 24" width="512" height="512"><path d="M18.5,0H5.5A5.506,5.506,0,0,0,0,5.5v8A5.506,5.506,0,0,0,5.5,19h5v2H8a1.5,1.5,0,0,0,0,3h8a1.5,1.5,0,0,0,0-3H13.5V19h5A5.506,5.506,0,0,0,24,13.5v-8A5.506,5.506,0,0,0,18.5,0ZM5.5,3h13A2.5,2.5,0,0,1,21,5.5V13H3V5.5A2.5,2.5,0,0,1,5.5,3Z"/></svg>
